!!!OTL: GUT GSELL UND DU MUSST WANDERN
!!!ARE: Europa, Mitteleuropa, Deutschland
!!!SCT: E0473
!!!YEM: Copyright 1995, estate of Helmut Schaffrath.
**kern
*ICvox
*Ivox
*M4/4
*k[f#]
*G:
{4dd
=1
4dd
4b
4cc
4dd
=2
4ee
8dd
8ee
4cc}
{4ee
=3
4dd
4b
4cc
4a
=4
8b
8cc
8b
8a
4g}
{4b
=5
4a
4f#
4g
4e
=6
8f#
8g
8f#
8e
4d}
{4b
=7
4a
4g
4g
4f#
=8
2.g}
{4b
=9
4cc
8a
8b
4cc
4b
=10
4.a
8g
4a}
{4b
=11
4cc
4a
4.a
8g#
=12
2.a}
{8a
8g
=13
8f#
8g
8f#
8e
4d
8dd
8cc
=14
8b
8cc
8b
8a
4g}
{4b
=15
4a
4g
4g
4f#
=16
2.g}
==
!!!AGN: Liebes - Lied
!!!ONB: ESAC (Essen Associative Code) Database: ERK1
!!!AMT: simple quadruple
!!!AIN: vox
!!!EED: Helmut Schaffrath
!!!EEV: 1.0
*-
